svg/harmonics.svg

<svg width="24" height="24" viewBox="0 0 24 24"  xmlns="http://www.w3.org/2000/svg">
<path d="M3 13.0031V11.0031H5V13.0031H3Z" />
<path d="M4.61208 7.3254L3 6.34327V4.00134L5.65264 5.61741C5.8273 5.72382 6.04916 5.71312 6.21278 5.59041L7.5927 4.55547C9.02306 3.4827 11.0844 4.21456 11.5181 5.94913L14.4222 17.5658C14.509 17.9127 14.9212 18.0591 15.2073 17.8445L16.5858 16.8106C17.4051 16.1962 18.5162 16.1435 19.3899 16.6777L21 17.6621V20.0063L18.3467 18.384C18.1719 18.2772 17.9497 18.2877 17.7858 18.4106L16.4073 19.4445C14.9769 20.5173 12.9156 19.7854 12.4819 18.0509L9.57778 6.4342C9.49105 6.08729 9.07878 5.94091 8.7927 6.15547L7.41278 7.19041C6.59469 7.80398 5.48539 7.85745 4.61208 7.3254Z" />
<path d="M21 11.0031H19V13.0031H21V11.0031Z" />
<path d="M7 11.0031H9V13.0031H7V11.0031Z" />
<path d="M17 11.0031H15V13.0031H17V11.0031Z" />
</svg>

<svg width="24" height="24" viewBox="0 0 24 24" xmlns="http://www.w3.org/2000/svg"><path d="M3 13.003v-2h2v2H3zM4.612 7.325L3 6.343V4.001l2.653 1.616a.5.5 0 0 0 .56-.027l1.38-1.035c1.43-1.072 3.491-.34 3.925 1.394l2.904 11.617a.5.5 0 0 0 .785.279l1.379-1.034a2.5 2.5 0 0 1 2.804-.133l1.61.984v2.344l-2.653-1.622a.5.5 0 0 0-.561.027l-1.379 1.034c-1.43 1.072-3.491.34-3.925-1.394L9.578 6.434a.5.5 0 0 0-.785-.279L7.413 7.19a2.5 2.5 0 0 1-2.8.135zM21 11.003h-2v2h2v-2z"/><path d="M7 11.003h2v2H7v-2zM17 11.003h-2v2h2v-2z"/></svg>
